svg/flanksource.svg

<?xml version="1.0" encoding="UTF-8"?>
<svg xmlns="http://www.w3.org/2000/svg" xmlns:xlink="http://www.w3.org/1999/xlink" width="114.051003" height="32" viewBox="0 0 114.051003 32">
<path fill-rule="nonzero" fill="rgb(100%, 100%, 100%)" fill-opacity="1" d="M 26.324219 1.171875 L 34.648438 15.589844 L 26.324219 30.007812 L 9.675781 30.007812 L 1.355469 15.589844 L 9.675781 1.171875 Z M 27.003906 0 L 9 0 L 0 15.589844 L 9 31.179688 L 27.003906 31.179688 L 36.003906 15.589844 Z M 18.257812 7.78125 L 20.402344 7.78125 L 20.402344 10.265625 L 18.257812 10.265625 Z M 15.835938 7.78125 L 17.859375 7.78125 L 17.859375 10.265625 L 15.835938 10.265625 Z M 8.113281 7.226562 L 14.621094 8.660156 L 14.621094 9.03125 L 5.898438 11.054688 L 3.28125 15.589844 L 10.640625 28.527344 L 11.238281 28.527344 C 11.6875 28.191406 12.675781 27.1875 13.484375 26.035156 C 14.292969 24.882812 14.679688 24.25 15.253906 23.910156 C 15.429688 23.792969 15.628906 23.710938 15.835938 23.675781 L 15.851562 23.671875 L 15.851562 23.675781 C 15.9375 23.660156 16.027344 23.648438 16.113281 23.648438 C 16.78125 23.648438 17.347656 24.078125 17.5625 24.675781 C 17.289062 24.542969 16.742188 24.382812 16.226562 24.863281 C 15.507812 25.535156 15.921875 26.714844 15.921875 26.714844 C 15.949219 26.800781 15.980469 26.875 16.011719 26.945312 C 15.621094 27.421875 14.613281 28.230469 14.183594 28.527344 L 14.644531 28.527344 C 15.152344 28.148438 16.597656 27.007812 17.546875 25.652344 C 18.480469 24.316406 18.921875 23.589844 19.589844 23.199219 C 19.789062 23.0625 20.019531 22.972656 20.257812 22.929688 L 20.277344 22.921875 L 20.277344 22.925781 C 20.375 22.910156 20.476562 22.894531 20.582031 22.894531 C 21.332031 22.894531 22.003906 23.371094 22.25 24.082031 C 21.9375 23.929688 21.308594 23.746094 20.714844 24.300781 C 19.878906 25.074219 20.363281 26.4375 20.363281 26.4375 C 20.433594 26.664062 20.519531 26.84375 20.621094 26.953125 C 20.242188 27.421875 19.242188 28.226562 18.808594 28.527344 L 19.261719 28.527344 C 19.660156 28.222656 20.722656 27.371094 21.375 26.4375 C 22.054688 25.46875 22.378906 24.9375 22.859375 24.652344 C 23.007812 24.554688 23.175781 24.488281 23.351562 24.457031 L 23.363281 24.453125 L 23.363281 24.457031 C 23.433594 24.441406 23.507812 24.433594 23.582031 24.433594 C 24.144531 24.433594 24.621094 24.792969 24.800781 25.296875 C 24.574219 25.1875 24.113281 25.050781 23.679688 25.453125 C 23.074219 26.019531 23.425781 27.011719 23.425781 27.011719 C 23.476562 27.175781 23.539062 27.304688 23.613281 27.386719 L 23.609375 27.390625 C 23.6875 27.523438 24.019531 28.210938 24.714844 28.527344 L 25.363281 28.527344 L 32.722656 15.589844 L 30.085938 11.027344 L 21.53125 9.042969 L 21.53125 8.667969 L 27.914062 7.261719 L 25.363281 2.84375 L 10.640625 2.84375 M 15.519531 11.636719 L 15.519531 7.800781 L 14.929688 7.800781 L 18.125 5.25 L 21.324219 7.800781 L 20.730469 7.800781 L 20.730469 11.636719 L 22.75 11.636719 C 22.75 11.636719 21.6875 13.144531 21.6875 14.890625 L 14.5625 14.890625 C 14.5625 13.144531 13.503906 11.636719 13.503906 11.636719 Z M 19.386719 15.589844 L 14.164062 18.605469 L 14.519531 15.589844 Z M 13.515625 24.09375 L 13.894531 20.902344 L 21.644531 16.410156 L 21.972656 19.191406 Z M 20.152344 22.382812 L 20.152344 21.980469 L 22.339844 20.71875 L 22.636719 23.253906 C 21.886719 22.066406 20.152344 22.382812 20.152344 22.382812 M 44.527344 9.515625 C 44.902344 9.515625 45.214844 9.546875 45.460938 9.609375 C 45.707031 9.671875 45.914062 9.738281 46.085938 9.8125 L 45.734375 11.382812 C 45.582031 11.316406 45.421875 11.273438 45.257812 11.25 C 45.082031 11.222656 44.90625 11.207031 44.730469 11.207031 C 44.488281 11.207031 44.28125 11.242188 44.117188 11.308594 C 43.964844 11.367188 43.832031 11.460938 43.726562 11.585938 C 43.632812 11.703125 43.566406 11.839844 43.527344 12 C 43.484375 12.171875 43.464844 12.347656 43.464844 12.523438 L 43.464844 12.875 L 45.9375 12.875 L 45.9375 14.539062 L 43.464844 14.539062 L 43.464844 19.941406 L 41.464844 19.941406 L 41.464844 12.5 C 41.464844 11.585938 41.71875 10.859375 42.234375 10.320312 C 42.75 9.785156 43.515625 9.515625 44.527344 9.515625 M 49.925781 20.074219 C 49.34375 20.066406 48.871094 20.003906 48.511719 19.886719 C 48.148438 19.769531 47.863281 19.609375 47.652344 19.398438 C 47.441406 19.1875 47.292969 18.921875 47.21875 18.632812 C 47.140625 18.300781 47.101562 17.960938 47.105469 17.617188 L 47.105469 9.839844 L 49.109375 9.515625 L 49.109375 17.214844 C 49.109375 17.394531 49.121094 17.554688 49.148438 17.699219 C 49.191406 17.972656 49.375 18.203125 49.632812 18.300781 C 49.773438 18.367188 49.96875 18.40625 50.210938 18.421875 Z M 54.320312 12.6875 C 54.914062 12.6875 55.40625 12.753906 55.800781 12.886719 C 56.191406 13.023438 56.507812 13.214844 56.746094 13.464844 C 56.984375 13.714844 57.152344 14.019531 57.25 14.378906 C 57.347656 14.738281 57.398438 15.136719 57.398438 15.574219 L 57.398438 19.738281 L 56.203125 19.960938 C 55.691406 20.046875 55.074219 20.089844 54.347656 20.089844 C 53.890625 20.089844 53.476562 20.050781 53.105469 19.96875 C 52.761719 19.898438 52.4375 19.761719 52.144531 19.570312 C 51.878906 19.390625 51.664062 19.140625 51.527344 18.851562 C 51.382812 18.558594 51.3125 18.195312 51.3125 17.765625 C 51.3125 17.351562 51.394531 17.003906 51.558594 16.71875 C 51.722656 16.4375 51.949219 16.199219 52.226562 16.03125 C 52.503906 15.859375 52.820312 15.738281 53.179688 15.660156 C 53.546875 15.585938 53.921875 15.546875 54.296875 15.546875 L 54.988281 15.582031 C 55.1875 15.605469 55.351562 15.632812 55.476562 15.667969 L 55.476562 15.480469 C 55.476562 15.140625 55.375 14.867188 55.167969 14.660156 C 54.960938 14.453125 54.601562 14.351562 54.09375 14.351562 C 53.757812 14.351562 53.417969 14.375 53.085938 14.425781 C 52.792969 14.464844 52.503906 14.535156 52.226562 14.632812 L 51.96875 13.023438 L 52.40625 12.90625 L 52.976562 12.800781 L 53.628906 12.71875 Z M 54.484375 18.542969 L 55.046875 18.53125 L 55.476562 18.488281 L 55.476562 16.972656 C 55.355469 16.945312 55.234375 16.929688 55.113281 16.917969 L 54.671875 16.890625 C 54.496094 16.890625 54.316406 16.902344 54.140625 16.925781 C 53.988281 16.941406 53.839844 16.984375 53.703125 17.050781 C 53.582031 17.109375 53.480469 17.199219 53.40625 17.308594 C 53.332031 17.429688 53.296875 17.570312 53.300781 17.710938 C 53.300781 18.023438 53.40625 18.242188 53.617188 18.363281 C 53.828125 18.480469 54.117188 18.542969 54.484375 18.542969 M 59.046875 13.113281 C 59.386719 13.015625 59.824219 12.925781 60.363281 12.839844 C 60.921875 12.75 61.488281 12.707031 62.054688 12.710938 C 62.65625 12.710938 63.152344 12.789062 63.554688 12.945312 C 63.953125 13.101562 64.265625 13.324219 64.5 13.613281 C 64.734375 13.898438 64.898438 14.238281 64.996094 14.632812 C 65.09375 15.027344 65.144531 15.464844 65.144531 15.949219 L 65.144531 19.941406 L 63.140625 19.941406 L 63.140625 16.191406 C 63.140625 15.546875 63.058594 15.089844 62.886719 14.820312 C 62.71875 14.554688 62.398438 14.417969 61.933594 14.417969 L 61.476562 14.4375 L 61.046875 14.484375 L 61.046875 19.941406 L 59.046875 19.941406 Z M 68.871094 15.410156 L 69.480469 14.742188 L 70.089844 14.054688 L 70.648438 13.40625 L 71.097656 12.875 L 73.480469 12.875 L 72.085938 14.433594 L 70.601562 15.96875 C 70.871094 16.210938 71.148438 16.503906 71.4375 16.839844 L 72.269531 17.882812 L 73.007812 18.957031 L 73.574219 19.941406 L 71.269531 19.941406 L 70.78125 19.164062 L 70.199219 18.316406 L 69.546875 17.503906 C 69.339844 17.265625 69.113281 17.042969 68.867188 16.84375 L 68.867188 19.941406 L 66.867188 19.941406 L 66.867188 9.839844 L 68.867188 9.515625 Z M 76.613281 19.324219 C 77.113281 19.324219 77.527344 19.238281 77.855469 19.074219 C 78.183594 18.910156 78.347656 18.628906 78.347656 18.234375 C 78.347656 18.046875 78.316406 17.882812 78.257812 17.75 C 78.191406 17.605469 78.09375 17.480469 77.96875 17.386719 C 77.804688 17.261719 77.628906 17.15625 77.4375 17.078125 L 76.625 16.730469 L 75.886719 16.398438 C 75.667969 16.292969 75.460938 16.164062 75.269531 16.011719 C 75.09375 15.863281 74.949219 15.683594 74.839844 15.480469 C 74.726562 15.246094 74.671875 14.988281 74.679688 14.726562 C 74.679688 14.164062 74.890625 13.707031 75.316406 13.355469 C 75.742188 13.007812 76.328125 12.832031 77.070312 12.832031 C 77.546875 12.832031 77.9375 12.875 78.246094 12.953125 C 78.554688 13.03125 78.773438 13.105469 78.898438 13.167969 L 78.695312 13.949219 C 78.519531 13.867188 78.335938 13.796875 78.152344 13.734375 C 77.898438 13.644531 77.523438 13.597656 77.03125 13.597656 C 76.832031 13.597656 76.648438 13.617188 76.472656 13.660156 C 76.296875 13.699219 76.144531 13.761719 76.007812 13.847656 C 75.878906 13.929688 75.769531 14.042969 75.6875 14.171875 C 75.601562 14.316406 75.558594 14.480469 75.566406 14.648438 C 75.566406 14.835938 75.601562 15 75.671875 15.132812 C 75.742188 15.269531 75.851562 15.386719 75.988281 15.492188 C 76.148438 15.605469 76.320312 15.703125 76.5 15.777344 L 77.191406 16.074219 L 77.960938 16.402344 C 78.210938 16.511719 78.425781 16.648438 78.613281 16.804688 C 78.800781 16.960938 78.957031 17.148438 79.070312 17.367188 C 79.1875 17.585938 79.246094 17.863281 79.246094 18.195312 C 79.246094 18.820312 79.011719 19.296875 78.542969 19.617188 C 78.070312 19.941406 77.429688 20.101562 76.613281 20.101562 C 76.003906 20.101562 75.539062 20.050781 75.21875 19.949219 L 74.570312 19.710938 L 74.800781 18.917969 C 74.828125 18.9375 74.886719 18.964844 74.972656 19.007812 C 75.265625 19.132812 75.570312 19.21875 75.882812 19.269531 C 76.089844 19.304688 76.335938 19.324219 76.613281 19.324219 M 86.671875 16.472656 C 86.671875 17.019531 86.59375 17.515625 86.4375 17.964844 C 86.296875 18.386719 86.074219 18.773438 85.777344 19.105469 C 85.5 19.417969 85.160156 19.667969 84.777344 19.839844 C 84.375 20.019531 83.941406 20.109375 83.5 20.101562 C 82.632812 20.113281 81.800781 19.75 81.222656 19.105469 C 80.929688 18.773438 80.707031 18.386719 80.566406 17.964844 C 80.40625 17.484375 80.324219 16.980469 80.332031 16.472656 C 80.332031 15.925781 80.410156 15.429688 80.566406 14.984375 C 80.707031 14.5625 80.929688 14.167969 81.222656 13.832031 C 81.503906 13.519531 81.84375 13.265625 82.226562 13.09375 C 82.628906 12.917969 83.0625 12.828125 83.5 12.832031 C 83.96875 12.832031 84.394531 12.921875 84.777344 13.09375 C 85.15625 13.269531 85.5 13.519531 85.777344 13.832031 C 86.058594 14.152344 86.28125 14.535156 86.4375 14.984375 C 86.59375 15.429688 86.671875 15.929688 86.671875 16.472656 M 85.746094 16.472656 C 85.746094 15.605469 85.542969 14.914062 85.140625 14.398438 C 84.738281 13.878906 84.191406 13.625 83.5 13.625 C 82.8125 13.625 82.265625 13.882812 81.863281 14.398438 C 81.460938 14.910156 81.257812 15.605469 81.257812 16.472656 C 81.257812 17.339844 81.460938 18.03125 81.863281 18.542969 C 82.265625 19.054688 82.8125 19.308594 83.5 19.308594 C 84.191406 19.308594 84.738281 19.054688 85.140625 18.542969 C 85.542969 18.035156 85.746094 17.34375 85.746094 16.472656 M 93.824219 19.699219 L 92.777344 19.941406 C 92.339844 20.03125 91.800781 20.074219 91.164062 20.074219 C 90.644531 20.074219 90.210938 19.996094 89.859375 19.847656 C 89.527344 19.707031 89.238281 19.484375 89.015625 19.199219 C 88.789062 18.902344 88.628906 18.558594 88.550781 18.191406 C 88.453125 17.765625 88.40625 17.328125 88.410156 16.890625 L 88.410156 12.996094 L 89.285156 12.996094 L 89.285156 16.609375 C 89.285156 17.101562 89.320312 17.519531 89.390625 17.859375 C 89.460938 18.199219 89.578125 18.472656 89.742188 18.683594 C 89.902344 18.894531 90.109375 19.046875 90.367188 19.140625 C 90.621094 19.234375 90.933594 19.28125 91.300781 19.28125 C 91.710938 19.28125 92.070312 19.261719 92.375 19.214844 C 92.679688 19.167969 92.871094 19.128906 92.953125 19.09375 L 92.953125 12.996094 L 93.824219 12.996094 Z M 98.546875 12.859375 C 98.832031 12.859375 99.101562 12.882812 99.359375 12.925781 C 99.613281 12.972656 99.789062 13.015625 99.890625 13.0625 L 99.714844 13.8125 C 99.574219 13.757812 99.425781 13.71875 99.277344 13.699219 C 98.988281 13.65625 98.699219 13.636719 98.410156 13.640625 C 98.035156 13.640625 97.730469 13.667969 97.503906 13.71875 C 97.277344 13.773438 97.125 13.816406 97.050781 13.855469 L 97.050781 19.941406 L 96.179688 19.941406 L 96.179688 13.316406 C 96.480469 13.191406 96.792969 13.09375 97.109375 13.015625 C 97.503906 12.910156 97.980469 12.859375 98.546875 12.859375 M 104.160156 20.089844 C 103.625 20.089844 103.148438 20.003906 102.738281 19.832031 C 102.339844 19.675781 101.988281 19.425781 101.710938 19.101562 C 101.4375 18.78125 101.226562 18.402344 101.085938 17.957031 C 100.9375 17.480469 100.863281 16.984375 100.871094 16.488281 C 100.871094 15.941406 100.945312 15.445312 101.089844 14.996094 C 101.226562 14.574219 101.441406 14.179688 101.730469 13.839844 C 102.007812 13.519531 102.351562 13.265625 102.738281 13.09375 C 103.15625 12.914062 103.609375 12.824219 104.066406 12.832031 C 104.441406 12.832031 104.796875 12.863281 105.121094 12.925781 C 105.449219 12.988281 105.703125 13.070312 105.882812 13.167969 L 105.652344 13.921875 C 105.472656 13.832031 105.273438 13.761719 105.046875 13.707031 C 104.75 13.644531 104.449219 13.617188 104.148438 13.625 C 103.378906 13.625 102.792969 13.875 102.394531 14.371094 C 101.996094 14.867188 101.796875 15.574219 101.796875 16.488281 C 101.796875 16.898438 101.839844 17.277344 101.929688 17.621094 C 102.019531 17.96875 102.164062 18.261719 102.367188 18.507812 C 102.570312 18.753906 102.828125 18.949219 103.148438 19.085938 C 103.464844 19.226562 103.851562 19.296875 104.308594 19.296875 C 104.683594 19.296875 105 19.253906 105.257812 19.167969 C 105.511719 19.082031 105.699219 19.007812 105.8125 18.945312 L 106.003906 19.699219 C 105.839844 19.789062 105.585938 19.875 105.242188 19.960938 C 104.886719 20.046875 104.523438 20.089844 104.160156 20.085938 M 107.09375 16.460938 C 107.09375 15.851562 107.183594 15.320312 107.355469 14.871094 C 107.53125 14.417969 107.757812 14.039062 108.042969 13.734375 C 108.3125 13.4375 108.644531 13.207031 109.011719 13.054688 C 109.367188 12.90625 109.746094 12.832031 110.132812 12.832031 C 110.980469 12.832031 111.660156 13.109375 112.167969 13.664062 C 112.671875 14.222656 112.925781 15.078125 112.925781 16.230469 L 112.917969 16.445312 L 112.898438 16.648438 L 108.019531 16.648438 C 108.046875 17.5 108.257812 18.152344 108.652344 18.609375 C 109.046875 19.066406 109.675781 19.296875 110.535156 19.296875 C 111.007812 19.296875 111.382812 19.25 111.664062 19.160156 L 112.265625 18.933594 L 112.429688 19.683594 C 112.304688 19.757812 112.066406 19.84375 111.722656 19.941406 C 111.378906 20.039062 110.972656 20.085938 110.507812 20.085938 C 109.898438 20.085938 109.378906 20 108.949219 19.820312 C 108.519531 19.640625 108.164062 19.390625 107.886719 19.066406 C 107.605469 18.730469 107.398438 18.339844 107.28125 17.917969 C 107.152344 17.441406 107.089844 16.953125 107.09375 16.460938 M 112.027344 15.910156 C 112.007812 15.183594 111.835938 14.621094 111.515625 14.21875 C 111.191406 13.8125 110.734375 13.613281 110.144531 13.613281 C 109.832031 13.613281 109.550781 13.675781 109.304688 13.800781 C 109.058594 13.925781 108.839844 14.097656 108.660156 14.304688 C 108.472656 14.519531 108.328125 14.765625 108.230469 15.035156 C 108.125 15.316406 108.0625 15.609375 108.050781 15.910156 Z M 112.027344 15.910156 "/>
</svg>

<svg role="img" viewBox="0 0 114.051 32" height="32" width="114.051" xmlns="http://www.w3.org/2000/svg"><path d="m26.324 1.172 8.324 14.418-8.324 14.418H9.676L1.356 15.59l8.32-14.418ZM27.004 0H9L0 15.59l9 15.59h18.004l9-15.59Zm-8.746 7.781h2.144v2.485h-2.144Zm-2.422 0h2.023v2.485h-2.023Zm-7.723-.554 6.508 1.433v.371l-8.723 2.024-2.617 4.535 7.36 12.937h.597c.45-.336 1.438-1.34 2.246-2.492.809-1.152 1.196-1.785 1.77-2.125.176-.117.375-.2.582-.234l.016-.004v.004c.085-.016.175-.028.261-.028.668 0 1.235.43 1.45 1.028-.274-.133-.82-.293-1.336.187-.72.672-.305 1.852-.305 1.852.027.086.058.16.09.23-.39.477-1.399 1.285-1.828 1.582h.46c.508-.379 1.954-1.52 2.903-2.875.933-1.336 1.375-2.062 2.043-2.453.2-.137.43-.226.668-.27l.02-.007v.004c.097-.016.199-.031.304-.031.75 0 1.422.476 1.668 1.187-.312-.152-.941-.336-1.535.219-.836.773-.352 2.137-.352 2.137.07.226.157.406.258.515-.379.469-1.379 1.274-1.812 1.574h.453c.398-.304 1.46-1.156 2.113-2.09.68-.968 1.004-1.5 1.484-1.785.149-.097.317-.164.493-.195l.011-.004v.004a.993.993 0 0 1 .219-.023c.563 0 1.04.359 1.219.863-.227-.11-.688-.246-1.121.156-.606.567-.254 1.559-.254 1.559.05.164.113.293.187.375l-.004.004c.078.132.41.82 1.106 1.136h.648l7.36-12.937-2.637-4.563-8.555-1.984v-.375l6.383-1.406-2.55-4.418H10.64m4.879 8.793V7.8h-.59l3.195-2.551 3.2 2.55h-.595v3.837h2.02s-1.062 1.508-1.062 3.254h-7.125c0-1.746-1.06-3.254-1.06-3.254Zm3.867 3.953-5.223 3.015.356-3.015Zm-5.871 8.504.379-3.192 7.75-4.492.328 2.781Zm6.636-1.711v-.403l2.188-1.261.297 2.535c-.75-1.188-2.485-.871-2.485-.871M44.527 9.516c.375 0 .688.03.934.093.246.063.453.13.625.204l-.352 1.57a1.84 1.84 0 0 0-.476-.133 3.429 3.429 0 0 0-.528-.043c-.242 0-.449.035-.613.102a.956.956 0 0 0-.39.277c-.094.117-.16.254-.2.414a2.156 2.156 0 0 0-.062.523v.352h2.472v1.664h-2.472v5.402h-2V12.5c0-.914.254-1.64.77-2.18.515-.535 1.28-.804 2.292-.804m5.399 10.558c-.582-.008-1.055-.07-1.414-.187-.364-.117-.649-.278-.86-.489a1.667 1.667 0 0 1-.433-.765 4.218 4.218 0 0 1-.114-1.016V9.84l2.004-.324v7.699c0 .18.012.34.04.484a.768.768 0 0 0 .484.602c.14.066.336.105.578.12Zm4.394-7.387c.594 0 1.086.067 1.48.2.391.136.708.328.946.578.238.25.406.555.504.914.098.36.148.758.148 1.195v4.164l-1.195.223c-.512.086-1.129.129-1.855.129-.457 0-.871-.04-1.243-.121a2.772 2.772 0 0 1-.96-.399c-.266-.18-.48-.43-.618-.718-.144-.293-.215-.657-.215-1.086 0-.414.083-.762.247-1.047.164-.282.39-.52.668-.688.277-.172.593-.293.953-.37a5.646 5.646 0 0 1 1.117-.114l.691.035c.2.023.364.05.489.086v-.188c0-.34-.102-.613-.309-.82-.207-.207-.566-.308-1.074-.308-.336 0-.676.023-1.008.074-.293.039-.582.11-.86.207l-.257-1.61.437-.117.57-.105.653-.082Zm.164 5.856.563-.012.43-.043v-1.515a2.914 2.914 0 0 0-.364-.055l-.441-.027c-.176 0-.356.011-.531.035a1.31 1.31 0 0 0-.438.125.759.759 0 0 0-.297.258.731.731 0 0 0-.105.402c0 .312.105.531.316.652.211.117.5.18.867.18m4.563-5.43c.34-.097.777-.187 1.316-.273.559-.09 1.125-.133 1.692-.13.601 0 1.097.08 1.5.235.398.157.71.38.945.668.234.285.398.625.496 1.02.098.394.149.832.149 1.316v3.992H63.14v-3.75c0-.644-.082-1.101-.254-1.37-.168-.266-.489-.403-.953-.403l-.457.02-.43.046v5.457h-2Zm9.824 2.297.61-.668.609-.687.558-.649.45-.531h2.382l-1.394 1.559-1.484 1.535c.27.242.546.535.835.87l.833 1.044.738 1.074.566.984H71.27l-.489-.777-.582-.848-.652-.812a5.428 5.428 0 0 0-.68-.66v3.097h-2V9.84l2-.324Zm7.742 3.914c.5 0 .914-.086 1.242-.25.329-.164.493-.445.493-.84 0-.187-.032-.351-.09-.484a.942.942 0 0 0-.29-.363 2.329 2.329 0 0 0-.53-.309l-.813-.348-.738-.332a3.27 3.27 0 0 1-.617-.386 1.825 1.825 0 0 1-.43-.532 1.618 1.618 0 0 1-.16-.753c0-.563.21-1.02.636-1.372.426-.347 1.012-.523 1.754-.523.477 0 .868.043 1.176.121.309.078.527.152.652.215l-.203.781a5.407 5.407 0 0 0-.543-.215c-.254-.09-.629-.136-1.12-.136-.2 0-.384.02-.56.062-.175.04-.327.102-.464.188a1.057 1.057 0 0 0-.32.324.852.852 0 0 0-.122.476c0 .188.036.352.106.485.07.137.18.254.316.36.16.112.332.21.512.284l.691.297.77.328c.25.11.465.246.652.403.188.156.344.343.457.562.118.219.176.496.176.828 0 .625-.234 1.102-.703 1.422-.473.324-1.113.485-1.93.485-.61 0-1.074-.051-1.394-.153l-.649-.238.23-.793c.028.02.087.047.173.09.293.125.597.21.91.262.207.035.453.054.73.054m10.059-2.851c0 .547-.078 1.043-.234 1.492a3.26 3.26 0 0 1-.66 1.14 2.952 2.952 0 0 1-1 .735c-.403.18-.837.27-1.278.262a3.006 3.006 0 0 1-2.277-.997 3.297 3.297 0 0 1-.657-1.14 4.5 4.5 0 0 1-.234-1.492c0-.547.078-1.043.234-1.489a3.4 3.4 0 0 1 .657-1.152 3.017 3.017 0 0 1 1.004-.738 3.111 3.111 0 0 1 1.273-.262c.469 0 .895.09 1.277.262.38.176.723.426 1 .738.282.32.504.703.66 1.152.157.446.235.946.235 1.489m-.926 0c0-.868-.203-1.559-.605-2.075-.403-.52-.95-.773-1.641-.773-.687 0-1.234.258-1.637.773-.402.512-.605 1.207-.605 2.075 0 .867.203 1.558.605 2.07.403.512.95.766 1.637.766.691 0 1.238-.254 1.64-.766.403-.508.606-1.2.606-2.07m8.078 3.226-1.047.242c-.437.09-.976.133-1.613.133-.52 0-.953-.078-1.305-.226a2.117 2.117 0 0 1-.843-.649 2.53 2.53 0 0 1-.465-1.008 5.6 5.6 0 0 1-.14-1.3v-3.895h.874v3.613c0 .493.035.91.106 1.25.07.34.187.614.351.825.16.21.367.363.625.457.254.093.567.14.934.14.41 0 .77-.02 1.074-.066.305-.047.496-.086.578-.121v-6.098h.871Zm4.723-6.84c.285 0 .555.024.812.067.254.047.43.09.532.136l-.176.75a1.898 1.898 0 0 0-.438-.113 5.393 5.393 0 0 0-.867-.058c-.375 0-.68.027-.906.078-.227.054-.379.097-.453.136v6.086h-.871v-6.625c.3-.125.613-.222.93-.3.394-.106.87-.157 1.437-.157m5.613 7.23c-.535 0-1.012-.085-1.422-.257a2.597 2.597 0 0 1-1.027-.73c-.273-.32-.484-.7-.625-1.145a4.695 4.695 0 0 1-.215-1.469c0-.547.074-1.043.219-1.492.137-.422.351-.816.64-1.156.278-.32.622-.574 1.008-.746.418-.18.871-.27 1.328-.262.375 0 .73.031 1.055.094.328.062.582.144.762.242l-.23.754c-.18-.09-.38-.16-.606-.215a3.868 3.868 0 0 0-.899-.082c-.77 0-1.355.25-1.753.746-.399.496-.598 1.203-.598 2.117 0 .41.043.79.133 1.133.09.348.234.64.437.887.203.246.461.441.781.578.317.14.704.21 1.16.21.376 0 .692-.042.95-.128.254-.086.441-.16.555-.223l.19.754c-.163.09-.417.176-.76.262a4.404 4.404 0 0 1-1.083.125m2.934-3.625c0-.61.09-1.14.261-1.59.176-.453.403-.832.688-1.137a2.71 2.71 0 0 1 .969-.68 2.9 2.9 0 0 1 1.12-.222c.848 0 1.528.277 2.036.832.504.559.758 1.414.758 2.566l-.008.215-.02.203h-4.878c.027.852.238 1.504.632 1.961.395.457 1.024.688 1.883.688.473 0 .848-.047 1.13-.137l.6-.226.165.75c-.125.074-.364.16-.707.257-.344.098-.75.145-1.215.145-.61 0-1.13-.086-1.559-.266-.43-.18-.785-.43-1.062-.754a3.068 3.068 0 0 1-.606-1.148 5.405 5.405 0 0 1-.187-1.457m4.933-.55c-.02-.727-.191-1.29-.511-1.692-.325-.406-.782-.606-1.371-.606-.313 0-.594.063-.84.188a2.134 2.134 0 0 0-.645.504c-.187.215-.332.46-.43.73a2.795 2.795 0 0 0-.18.875Zm0 0" fill="rgb(100%, 100%, 100%)"/></svg>
